img/services/04.svg

<svg width="70" height="70" viewBox="0 0 70 70" fill="none" xmlns="http://www.w3.org/2000/svg">
<path d="M45.1611 5.64465H65.4837V23.7092H45.1611V5.64465Z" fill="#007A65"/>
<path d="M70 0H15.8065V4.51613H4.51613C2.02591 4.51613 0 6.54204 0 9.03226V62.0968C0 66.4547 3.54544 70 7.90323 70H47.4194V65.4839H70V0ZM18.0645 2.25806H67.7419V58.7097H18.0645V56.4516H40.6452C43.1354 56.4516 45.1613 54.4257 45.1613 51.9355V41.6707C45.1613 40.7761 44.8991 39.9099 44.4027 39.1657L42.9032 36.9163V9.03226C42.9032 6.54204 40.8773 4.51613 38.3871 4.51613H18.0645V2.25806ZM2.25806 9.03226C2.25806 7.78722 3.27109 6.77419 4.51613 6.77419H38.3871C39.6321 6.77419 40.6452 7.78722 40.6452 9.03226V37.5999L42.524 40.4182C42.7721 40.7904 42.9032 41.2235 42.9032 41.6707V51.9355C42.9032 53.1805 41.8902 54.1936 40.6452 54.1936H7.90323C5.69399 54.1936 3.69363 55.1047 2.25806 56.571V9.03226ZM45.1613 67.7419H7.90323C4.79048 67.7419 2.25806 65.2095 2.25806 62.0968C2.25806 58.984 4.79048 56.4516 7.90323 56.4516H15.8065V65.4839H45.1613V67.7419ZM18.0645 63.2258V60.9677H67.7419V63.2258H18.0645Z" fill="black"/>
<path d="M38.3871 9.03235H4.51611V29.3549H38.3871V9.03235ZM19.1935 18.0646C19.1935 16.8196 20.2066 15.8065 21.4516 15.8065C22.6966 15.8065 23.7097 16.8196 23.7097 18.0646C23.7097 19.3096 22.6966 20.3227 21.4516 20.3227C20.2066 20.3227 19.1935 19.3096 19.1935 18.0646ZM21.4516 22.5807C24.1778 22.5807 26.4587 24.5234 26.9831 27.0969H15.92C16.4445 24.5234 18.7254 22.5807 21.4516 22.5807ZM36.129 27.0969H29.2728C28.8894 24.4287 27.169 22.1876 24.8138 21.0756C25.5308 20.276 25.9677 19.2205 25.9677 18.0646C25.9677 15.5744 23.9418 13.5485 21.4516 13.5485C18.9614 13.5485 16.9355 15.5744 16.9355 18.0646C16.9355 19.2205 17.3724 20.276 18.0893 21.0756C15.7342 22.1876 14.0138 24.4287 13.6304 27.0969H6.77418V11.2904H36.129V27.0969Z" fill="black"/>
<path d="M38.3871 31.6123H4.51611V38.3865H38.3871V31.6123ZM36.129 36.1284H6.77418V33.8704H36.129V36.1284Z" fill="black"/>
<path d="M31.6128 51.9357H38.387V45.1615H31.6128V51.9357ZM33.8709 47.4196H36.1289V49.6776H33.8709V47.4196Z" fill="black"/>
<path d="M22.5806 51.9357H29.3548V45.1615H22.5806V51.9357ZM24.8386 47.4196H27.0967V49.6776H24.8386V47.4196Z" fill="black"/>
<path d="M13.5483 51.9357H20.3225V45.1615H13.5483V51.9357ZM15.8064 47.4196H18.0645V49.6776H15.8064V47.4196Z" fill="black"/>
<path d="M4.51611 40.6447H6.77418V42.9027H4.51611V40.6447Z" fill="black"/>
<path d="M9.03223 40.6447H38.3871V42.9027H9.03223V40.6447Z" fill="black"/>
<path d="M47.4194 56.4516H65.484V42.9032H47.4194V56.4516ZM49.6775 45.1613H63.2259V54.1935H49.6775V45.1613Z" fill="black"/>
<path d="M47.4194 40.6452H65.484V27.0968H47.4194V40.6452ZM49.6775 29.3549H63.2259V38.3871H49.6775V29.3549Z" fill="black"/>
<path d="M45.1611 4.5155H65.4837V6.77357H45.1611V4.5155Z" fill="black"/>
<path d="M63.2256 9.03235H65.4837V11.2904H63.2256V9.03235Z" fill="black"/>
<path d="M45.1611 9.03235H60.9676V11.2904H45.1611V9.03235Z" fill="black"/>
<path d="M45.1611 13.5479H49.6773V15.8059H45.1611V13.5479Z" fill="black"/>
<path d="M51.9355 13.5479H65.4839V15.8059H51.9355V13.5479Z" fill="black"/>
<path d="M60.9678 18.0647H65.4839V20.3228H60.9678V18.0647Z" fill="black"/>
<path d="M56.4517 18.0647H58.7097V20.3228H56.4517V18.0647Z" fill="black"/>
<path d="M45.1611 18.0647H54.1934V20.3228H45.1611V18.0647Z" fill="black"/>
<path d="M45.1611 22.58H65.4837V24.838H45.1611V22.58Z" fill="black"/>
</svg>

<svg width="70" height="70" fill="none" xmlns="http://www.w3.org/2000/svg"><path d="M45.161 5.645h20.323v18.064H45.16V5.645z" fill="#007A65"/><path d="M70 0H15.806v4.516H4.517A4.521 4.521 0 000 9.032v53.065C0 66.455 3.545 70 7.903 70H47.42v-4.516H70V0zM18.064 2.258h49.678V58.71H18.064v-2.258h22.581a4.521 4.521 0 004.516-4.517V41.671a4.5 4.5 0 00-.758-2.505l-1.5-2.25V9.032a4.521 4.521 0 00-4.516-4.516H18.064V2.258zM2.258 9.032a2.26 2.26 0 012.258-2.258h33.871a2.26 2.26 0 012.258 2.258V37.6l1.879 2.818c.248.372.38.806.38 1.253v10.264a2.26 2.26 0 01-2.259 2.259H7.903a7.88 7.88 0 00-5.645 2.377V9.032zm42.903 58.71H7.903a5.652 5.652 0 01-5.645-5.645 5.652 5.652 0 015.645-5.645h7.904v9.032H45.16v2.258zm-27.097-4.516v-2.258h49.678v2.258H18.064z" fill="#000"/><path d="M38.387 9.032H4.517v20.323h33.87V9.032zm-19.194 9.033a2.26 2.26 0 012.259-2.259 2.26 2.26 0 012.258 2.259 2.26 2.26 0 01-2.258 2.258 2.26 2.26 0 01-2.259-2.258zm2.259 4.516a5.655 5.655 0 015.531 4.516H15.92a5.655 5.655 0 015.532-4.516zm14.677 4.516h-6.856a7.924 7.924 0 00-4.46-6.021 4.497 4.497 0 001.155-3.011 4.521 4.521 0 00-4.516-4.517 4.521 4.521 0 00-4.517 4.517c0 1.155.437 2.211 1.154 3.01a7.924 7.924 0 00-4.459 6.022H6.774V11.29H36.13v15.807zm2.258 4.515H4.517v6.774h33.87v-6.774zm-2.258 4.516H6.774V33.87H36.13v2.258zm-4.516 15.808h6.774V45.16h-6.774v6.775zm2.258-4.516h2.258v2.258H33.87V47.42zM22.58 51.936h6.775V45.16H22.58v6.775zm2.259-4.516h2.258v2.258h-2.258V47.42zm-11.291 4.516h6.775V45.16h-6.775v6.775zm2.258-4.516h2.258v2.258h-2.258V47.42zm-11.29-6.775h2.258v2.258H4.516v-2.258zm4.516 0h29.355v2.258H9.032v-2.258zM47.42 56.452h18.064V42.903H47.419v13.549zm2.258-11.29h13.548v9.032H49.678V45.16zm-2.258-4.517h18.064V27.097H47.419v13.548zm2.258-11.29h13.548v9.032H49.678v-9.032zM45.161 4.516h20.323v2.258H45.16V4.516zm18.065 4.516h2.258v2.258h-2.258V9.032zm-18.065 0h15.807v2.258H45.16V9.032zm0 4.516h4.516v2.258h-4.516v-2.258zm6.774 0h13.549v2.258H51.936v-2.258zm9.033 4.517h4.516v2.258h-4.516v-2.258zm-4.516 0h2.258v2.258h-2.258v-2.258zm-11.291 0h9.032v2.258h-9.032v-2.258zm0 4.515h20.323v2.258H45.16V22.58z" fill="#000"/></svg>
